X: 135018
T: MAMMY'S PET
Q: "Irish Reel."
R: Reel.
%R: reel
B: James Kerr "Merry Melodies" v.1 p.35 s.0 #18
Z: 2016 John Chambers <jc:trillian.mit.edu>
M: C
L: 1/8
K: C
|:\
c2(Bc) A2G2 | c2(ec) gcec |\
c2(Bc) A2G2 | (ea)(ag) e2d2 :|\
(ed)(de) (ec)(ce) | (ed)(de) (ea)(ag) |
(ed)(de) (ec)(ce) | (ea)(ag) e2d2 |\
(ed)d2 (ec)c2 | (ed)d2 (ea)a2 |\
c2d2 (ec)(cd) | (ea)(ag) e2d2 |]

%%sep 1 1 500
%%sep 1 1 500

